img/icons/Show.svg

<svg width="24" height="24" viewBox="0 0 24 24" fill="none" xmlns="http://www.w3.org/2000/svg">
<path d="M3.5868 13.7789C5.36623 15.5479 8.46953 18 12.0002 18C15.5308 18 18.6338 15.5479 20.4133 13.7789L20.4141 13.778C20.8832 13.3117 21.118 13.0782 21.2674 12.6202C21.3741 12.2934 21.3741 11.7066 21.2674 11.3798C21.118 10.9218 20.8832 10.6883 20.414 10.2219L20.4133 10.2211C18.6338 8.45208 15.5308 6 12.0002 6C8.46953 6 5.36623 8.45208 3.5868 10.2211C3.11714 10.688 2.88229 10.9215 2.7328 11.3798C2.62618 11.7066 2.62618 12.2934 2.7328 12.6202C2.88228 13.0785 3.11711 13.3119 3.58673 13.7788L3.5868 13.7789Z" stroke="#F56311" stroke-width="2" stroke-linecap="round" stroke-linejoin="round"/>
<path d="M10 12C10 13.1046 10.8954 14 12 14C13.1046 14 14 13.1046 14 12C14 10.8954 13.1046 10 12 10C10.8954 10 10 10.8954 10 12Z" stroke="#F56311" stroke-width="2" stroke-linecap="round" stroke-linejoin="round"/>
</svg>

<svg width="24" height="24" fill="none" xmlns="http://www.w3.org/2000/svg"><path d="M3.587 13.779C5.367 15.548 8.47 18 12 18c3.53 0 6.634-2.452 8.413-4.221l.001-.001c.47-.466.704-.7.853-1.158.107-.327.107-.913 0-1.24-.149-.458-.384-.692-.853-1.158h0C18.633 8.451 15.53 6 12 6c-3.53 0-6.634 2.452-8.413 4.221-.47.467-.705.7-.854 1.159-.107.327-.107.913 0 1.24.15.459.384.692.854 1.159h0Z" stroke="#F56311" stroke-width="2" stroke-linecap="round" stroke-linejoin="round"/><path d="M10 12a2 2 0 1 0 4 0 2 2 0 0 0-4 0Z" stroke="#F56311" stroke-width="2" stroke-linecap="round" stroke-linejoin="round"/></svg>
